src/assets/img/mbvb-logo-footer.svg

<svg viewBox="0 0 275.5 47.43" xmlns="http://www.w3.org/2000/svg"><path d="m10.57 10.16v2a4.27 4.27 0 0 1 4-2.39 3.66 3.66 0 0 1 3.77 2.39 4.54 4.54 0 0 1 4.27-2.39c2.17 0 4.27 1.31 4.27 4.93v9.34h-3.79v-8.81c0-1.31-.57-2.25-2-2.25-1.09 0-2.25.43-2.25 2.75v8.27h-3.78v-8.2c0-1.88-.58-2.75-2-2.75s-2.24.65-2.24 2.61v8.4h-3.82v-13.9zm23.24-.08v8.33c0 2 .58 2.82 2.17 2.82 1.81 0 2.83-.94 2.83-3.62v-7.53h3.83v13.92h-3.64v-2a4.81 4.81 0 0 1 -4.27 2.25c-3.19 0-4.78-1.81-4.78-5.29v-8.88zm17.74-.36c3.77 0 5.86 1.45 6.15 4.64h-3.76c-.15-1.38-1-1.81-2.32-1.81-1.74 0-2.17.65-2.17 1.15 0 .66.43 1 2 1.31l2.39.58c2.46.58 4.27 1.73 4.27 4.2 0 2.68-2 4.7-6.3 4.7-3.69 0-6.44-1.37-6.44-4.92h3.83c.15 1.3.65 2 2.9 2 1.37 0 2.24-.44 2.24-1.23s-.34-.92-1.85-1.34l-2.49-.59c-3-.72-4.34-1.59-4.34-4 .03-2.15 1.84-4.69 5.89-4.69zm14.7 0c4.2 0 6.8 2.54 6.59 8.33h-9.42c0 1.95 1 3.33 3 3.33a2.5 2.5 0 0 0 2.46-1.45h3.91c-.22 2.39-2.46 4.49-6.37 4.49-3.26 0-6.81-1.88-6.81-7.31.05-4.56 2.8-7.39 6.64-7.39zm2.75 5.94c-.07-1.74-1-2.82-2.68-2.82s-2.53 1.08-2.75 2.82zm10-5.58v8.33c0 2 .58 2.82 2.17 2.82 1.81 0 2.83-.94 2.83-3.62v-7.53h3.83v13.92h-3.7v-2a4.81 4.81 0 0 1 -4.27 2.25c-3.19 0-4.78-1.81-4.78-5.29v-8.88zm15.93.08v2a4.1 4.1 0 0 1 4-2.31 3.65 3.65 0 0 1 3.77 2.39 4.52 4.52 0 0 1 4.27-2.39c2.17 0 4.27 1.3 4.27 4.92v9.34h-3.84v-8.9c0-1.31-.58-2.25-2-2.25-1.09 0-2.25.43-2.25 2.75v8.29h-3.81v-8.2c0-1.88-.58-2.75-2-2.75s-2.24.65-2.24 2.61v8.4h-3.87v-13.9zm61.47-.08 2.83 10.14 2.89-10.14h4l-5.02 13.92h-4l-5-13.91zm16.94-.29a4.17 4.17 0 0 1 3.91 2.39v-2h3.7v13.82h-3.7v-2a4.53 4.53 0 0 1 -4.19 2.39c-3 0-5.8-2.61-5.8-7 0-4.85 2.46-7.61 6.08-7.61zm.8 11.44c1.67 0 3-1.15 3-4s-1.16-4.2-3-4.2-3 1.38-3 4.06c.02 3.06 1.33 4.14 2.99 4.14zm13.76-11.07v2a4.76 4.76 0 0 1 4.1-2.37c3 0 4.92 1.53 4.92 4.86v9.41h-3.82v-8.47c0-2-.8-2.68-2.32-2.68-1.37 0-2.75.58-2.75 3.62v7.47h-3.76v-13.84zm-177.26 22.59v6.66a4.51 4.51 0 0 1 4-2.17c3.41 0 5.87 2.6 5.87 7.09 0 5-2.61 7.46-5.79 7.46a4.56 4.56 0 0 1 -4.13-2.1v1.74h-3.71v-18.68zm3 16c1.6 0 2.9-1.23 2.9-4 0-3-1-4.2-3-4.2s-3 1.52-3 4.2c-.04 2.48 1.19 4 3.14 4zm15.75-11.59c4.57 0 7.17 2.9 7.17 7.46 0 4.27-2.39 7.39-7.17 7.39-4.48 0-7.16-3-7.16-7.46 0-4.27 2.53-7.39 7.16-7.39zm0 11.73c2 0 3.26-1.52 3.26-4.2 0-2.89-1.3-4.27-3.26-4.27-1.52 0-3.25.73-3.25 4.27 0 2.76 1.23 4.2 3.25 4.2zm13.18-16.29v3.4h-3.84v-3.4zm0 5v13.9h-3.84v-13.9zm7.53.07v15.33c0 1.81 0 4.2-4.13 4.2h-1.37v-3c.22 0 .51.07.72.07.58 0 1-.22 1-1.23v-15.37zm0-5.07v3.4h-3.76v-3.4zm7 5.07v2a4.09 4.09 0 0 1 4-2.32 3.64 3.64 0 0 1 3.76 2.39 4.52 4.52 0 0 1 4.27-2.39c2.18 0 4.28 1.3 4.28 4.92v9.34h-3.83v-8.9c0-1.3-.58-2.25-2-2.25-1.08 0-2.24.44-2.24 2.76v8.28h-3.8v-8.18c0-1.88-.58-2.75-2-2.75s-2.24.65-2.24 2.6v8.4h-3.87v-13.9zm24.61-.36a4.17 4.17 0 0 1 3.91 2.39v-2h3.7v13.8h-3.7v-2a4.54 4.54 0 0 1 -4.2 2.39c-3 0-5.79-2.6-5.79-7 .1-4.83 2.56-7.58 6.11-7.58zm.8 11.44c1.66 0 3-1.16 3-4s-1.16-4.2-3-4.2-3 1.37-3 4c.06 3.11 1.36 4.2 3.03 4.2zm13.64-11.08v2a4.75 4.75 0 0 1 4.13-2.39c3 0 4.92 1.52 4.92 4.85v9.41h-3.84v-8.44c0-2-.79-2.68-2.31-2.68s-2.75.58-2.75 3.58v7.5h-3.77v-13.83zm17.67-.43c3.76 0 5.86 1.44 6.15 4.63h-3.76c-.15-1.38-1-1.81-2.32-1.81-1.74 0-2.17.65-2.17 1.16s.43.94 2 1.3l2.39.58c2.46.58 4.27 1.74 4.27 4.2 0 2.68-2 4.71-6.3 4.71-3.69 0-6.45-1.38-6.45-4.93h3.84c.15 1.31.65 2 2.9 2 1.37 0 2.24-.43 2.24-1.23s-.36-.94-1.88-1.38l-2.39-.58c-3-.72-4.34-1.59-4.34-4 0-2.17 1.73-4.7 5.79-4.7zm43.37-4.49v6.66a4.51 4.51 0 0 1 4-2.17c3.4 0 5.87 2.6 5.87 7.09 0 5-2.61 7.46-5.8 7.46a4.54 4.54 0 0 1 -4.12-2.1v1.74h-3.7v-18.68zm3 16c1.59 0 2.89-1.23 2.89-4 0-3-1-4.2-3-4.2s-3 1.52-3 4.2c-.08 2.46 1.08 4 3 4zm15.27-11.51c4.2 0 6.81 2.53 6.59 8.32h-9.41c0 2 1 3.33 3 3.33a2.5 2.5 0 0 0 2.46-1.44h3.9c-.21 2.38-2.46 4.48-6.37 4.48-3.26 0-6.8-1.88-6.8-7.31.02-4.56 2.77-7.38 6.6-7.38zm2.76 5.93c-.08-1.73-1-2.82-2.68-2.82s-2.54 1.09-2.75 2.82zm9.92-5.57v8.32c0 2 .57 2.83 2.17 2.83 1.81 0 2.82-.94 2.82-3.62v-7.53h3.84v13.9h-3.69v-2a4.8 4.8 0 0 1 -4.28 2.29c-3.18 0-4.77-1.81-4.77-5.29v-8.9zm15.63.07v2a4.75 4.75 0 0 1 4.13-2.39c3 0 4.93 1.52 4.93 4.85v9.41h-3.83v-8.44c0-2-.8-2.68-2.32-2.68-1.37 0-2.75.58-2.75 3.62v7.46h-3.77v-13.83zm16.23-5.07v3.4h-3.8v-3.4zm0 5v13.9h-3.8v-13.9zm7 .07v2a4.74 4.74 0 0 1 4.12-2.39c3 0 4.93 1.52 4.93 4.85v9.41h-3.85v-8.44c0-2-.8-2.68-2.32-2.68-1.37 0-2.75.58-2.75 3.62v7.46h-3.76v-13.83zm17.23-.36a4.1 4.1 0 0 1 3.91 2.32v-2h3.69v13.15c0 4.27-1.88 6.29-6.95 6.37-3 0-6-1-6.3-4.2h4.13c.22.79.65 1.3 2.39 1.3 2.1 0 3-.94 3-4v-.94a3.86 3.86 0 0 1 -3.91 2.17c-3.55 0-5.87-2.53-5.87-7s2.42-7.17 5.9-7.17zm.94 11.08c1.67 0 3-1.09 3-3.91s-1.3-3.91-3-3.91c-1.88 0-3 1.3-3 4 .02 2.15.96 3.82 2.99 3.82zm15.49-11.15c4.2 0 6.81 2.53 6.59 8.32h-9.41c0 2 1 3.33 3 3.33a2.5 2.5 0 0 0 2.46-1.44h3.91c-.21 2.38-2.46 4.48-6.37 4.48-3.26 0-6.8-1.88-6.8-7.31 0-4.56 2.75-7.38 6.58-7.38zm2.68 5.93c-.07-1.73-1-2.82-2.68-2.82s-2.53 1.09-2.75 2.82zm10-5.5v2a4.74 4.74 0 0 1 4.12-2.39c3 0 4.93 1.52 4.93 4.85v9.41h-3.84v-8.44c0-2-.8-2.68-2.32-2.68s-2.75.58-2.75 3.62v7.46h-3.76v-13.83z" fill="#fff" transform="translate(-6.88 -9.72)"/></svg>

<svg id="Layer_1" data-name="Layer 1" xmlns="http://www.w3.org/2000/svg" viewBox="0 0 275.5 47.43"><defs><style>.cls-1{fill:#fff;}</style></defs><title>mbvb-logo-footer</title><path class="cls-1" d="M10.57,10.16v2a4.27,4.27,0,0,1,4-2.39,3.66,3.66,0,0,1,3.77,2.39,4.54,4.54,0,0,1,4.27-2.39c2.17,0,4.27,1.31,4.27,4.93v9.34H23.09V15.23c0-1.31-.57-2.25-2-2.25-1.09,0-2.25.43-2.25,2.75V24H15.06V15.8c0-1.88-.58-2.75-2-2.75s-2.24.65-2.24,2.61v8.4H7V10.16Zm23.24-.08v8.33c0,2,.58,2.82,2.17,2.82,1.81,0,2.83-.94,2.83-3.62V10.08h3.83V24H39V22a4.81,4.81,0,0,1-4.27,2.25c-3.19,0-4.78-1.81-4.78-5.29V10.08Zm17.74-.36c3.77,0,5.86,1.45,6.15,4.64H53.94c-.15-1.38-1-1.81-2.32-1.81-1.74,0-2.17.65-2.17,1.15,0,.66.43,1,2,1.31l2.39.58c2.46.58,4.27,1.73,4.27,4.2,0,2.68-2,4.7-6.3,4.7-3.69,0-6.44-1.37-6.44-4.92h3.83c.15,1.3.65,2,2.9,2,1.37,0,2.24-.44,2.24-1.23S54,19.42,52.49,19L50,18.41c-3-.72-4.34-1.59-4.34-4C45.69,12.26,47.5,9.72,51.55,9.72Zm14.7,0c4.2,0,6.8,2.54,6.59,8.33H63.42c0,1.95,1,3.33,3,3.33a2.5,2.5,0,0,0,2.46-1.45h3.91c-.22,2.39-2.46,4.49-6.37,4.49-3.26,0-6.81-1.88-6.81-7.31C59.66,12.55,62.41,9.72,66.25,9.72ZM69,15.66c-.07-1.74-1-2.82-2.68-2.82s-2.53,1.08-2.75,2.82Zm10-5.58v8.33c0,2,.58,2.82,2.17,2.82,1.81,0,2.83-.94,2.83-3.62V10.08h3.83V24H84.13V22a4.81,4.81,0,0,1-4.27,2.25c-3.19,0-4.78-1.81-4.78-5.29V10.08Zm15.93.08v2a4.1,4.1,0,0,1,4-2.31,3.65,3.65,0,0,1,3.77,2.39,4.52,4.52,0,0,1,4.27-2.39c2.17,0,4.27,1.3,4.27,4.92v9.34h-3.84v-8.9c0-1.31-.58-2.25-2-2.25-1.09,0-2.25.43-2.25,2.75V24H99.34V15.8c0-1.88-.58-2.75-2-2.75s-2.24.65-2.24,2.61v8.4H91.23V10.16Zm61.47-.08,2.83,10.14,2.89-10.14h4L161.1,24h-4l-5-13.91Zm16.94-.29a4.17,4.17,0,0,1,3.91,2.39v-2h3.7V24h-3.7V22a4.53,4.53,0,0,1-4.19,2.39c-3,0-5.8-2.61-5.8-7,0-4.85,2.46-7.61,6.08-7.61Zm.8,11.44c1.67,0,3-1.15,3-4s-1.16-4.2-3-4.2-3,1.38-3,4.06C171.16,20.15,172.47,21.23,174.13,21.23Zm13.76-11.07v2A4.76,4.76,0,0,1,192,9.79c3,0,4.92,1.53,4.92,4.86v9.41H193.1V15.59c0-2-.8-2.68-2.32-2.68-1.37,0-2.75.58-2.75,3.62V24h-3.76V10.16ZM10.64,32.75v6.66a4.51,4.51,0,0,1,4-2.17c3.41,0,5.87,2.6,5.87,7.09,0,5-2.61,7.46-5.79,7.46a4.56,4.56,0,0,1-4.13-2.1v1.74H6.88V32.75Zm3,16c1.6,0,2.9-1.23,2.9-4,0-3-1-4.2-3-4.2s-3,1.52-3,4.2C10.5,47.23,11.73,48.75,13.68,48.75ZM29.39,37.16c4.57,0,7.17,2.9,7.17,7.46,0,4.27-2.39,7.39-7.17,7.39-4.48,0-7.16-3-7.16-7.46C22.23,40.28,24.76,37.16,29.39,37.16Zm0,11.73c2,0,3.26-1.52,3.26-4.2,0-2.89-1.3-4.27-3.26-4.27-1.52,0-3.25.73-3.25,4.27C26.14,47.45,27.37,48.89,29.39,48.89ZM42.57,32.6V36H38.73V32.6Zm0,5V51.5H38.73V37.6Zm7.53.07V53c0,1.81,0,4.2-4.13,4.2H44.6v-3c.22,0,.51.07.72.07.58,0,1-.22,1-1.23V37.67Zm0-5.07V36H46.34V32.6Zm7,5.07v2a4.09,4.09,0,0,1,4-2.32,3.64,3.64,0,0,1,3.76,2.39,4.52,4.52,0,0,1,4.27-2.39c2.18,0,4.28,1.3,4.28,4.92v9.34H69.58v-8.9c0-1.3-.58-2.25-2-2.25-1.08,0-2.24.44-2.24,2.76V51.5H61.54V43.32c0-1.88-.58-2.75-2-2.75s-2.24.65-2.24,2.6v8.4H53.43V37.67Zm24.61-.36a4.17,4.17,0,0,1,3.91,2.39v-2h3.7V51.5h-3.7v-2a4.54,4.54,0,0,1-4.2,2.39c-3,0-5.79-2.6-5.79-7C75.73,40.06,78.19,37.31,81.74,37.31Zm.8,11.44c1.66,0,3-1.16,3-4s-1.16-4.2-3-4.2-3,1.37-3,4C79.57,47.66,80.87,48.75,82.54,48.75ZM96.15,37.67v2a4.75,4.75,0,0,1,4.13-2.39c3,0,4.92,1.52,4.92,4.85v9.41h-3.84V43.1c0-2-.79-2.68-2.31-2.68S96.3,41,96.3,44V51.5H92.53V37.67Zm17.67-.43c3.76,0,5.86,1.44,6.15,4.63h-3.76c-.15-1.38-1-1.81-2.32-1.81-1.74,0-2.17.65-2.17,1.16s.43.94,2,1.3l2.39.58c2.46.58,4.27,1.74,4.27,4.2,0,2.68-2,4.71-6.3,4.71-3.69,0-6.45-1.38-6.45-4.93h3.84c.15,1.31.65,2,2.9,2,1.37,0,2.24-.43,2.24-1.23s-.36-.94-1.88-1.38l-2.39-.58c-3-.72-4.34-1.59-4.34-4,0-2.17,1.73-4.7,5.79-4.7Zm43.37-4.49v6.66a4.51,4.51,0,0,1,4-2.17c3.4,0,5.87,2.6,5.87,7.09,0,5-2.61,7.46-5.8,7.46a4.54,4.54,0,0,1-4.12-2.1v1.74h-3.7V32.75Zm3,16c1.59,0,2.89-1.23,2.89-4,0-3-1-4.2-3-4.2s-3,1.52-3,4.2c-.08,2.46,1.08,4,3,4Zm15.27-11.51c4.2,0,6.81,2.53,6.59,8.32h-9.41c0,2,1,3.33,3,3.33a2.5,2.5,0,0,0,2.46-1.44H182c-.21,2.38-2.46,4.48-6.37,4.48-3.26,0-6.8-1.88-6.8-7.31C168.85,40.06,171.6,37.24,175.43,37.24Zm2.76,5.93c-.08-1.73-1-2.82-2.68-2.82s-2.54,1.09-2.75,2.82Zm9.92-5.57v8.32c0,2,.57,2.83,2.17,2.83,1.81,0,2.82-.94,2.82-3.62V37.6h3.84V51.5h-3.69v-2A4.8,4.8,0,0,1,189,51.79c-3.18,0-4.77-1.81-4.77-5.29V37.6Zm15.63.07v2a4.75,4.75,0,0,1,4.13-2.39c3,0,4.93,1.52,4.93,4.85v9.41H209V43.1c0-2-.8-2.68-2.32-2.68-1.37,0-2.75.58-2.75,3.62V51.5h-3.77V37.67ZM220,32.6V36H216.2V32.6Zm0,5V51.5H216.2V37.6Zm7,.07v2a4.74,4.74,0,0,1,4.12-2.39c3,0,4.93,1.52,4.93,4.85v9.41H232.2V43.1c0-2-.8-2.68-2.32-2.68-1.37,0-2.75.58-2.75,3.62V51.5h-3.76V37.67Zm17.23-.36a4.1,4.1,0,0,1,3.91,2.32v-2h3.69V50.78c0,4.27-1.88,6.29-6.95,6.37-3,0-6-1-6.3-4.2h4.13c.22.79.65,1.3,2.39,1.3,2.1,0,3-.94,3-4v-.94a3.86,3.86,0,0,1-3.91,2.17c-3.55,0-5.87-2.53-5.87-7S240.74,37.31,244.22,37.31Zm.94,11.08c1.67,0,3-1.09,3-3.91s-1.3-3.91-3-3.91c-1.88,0-3,1.3-3,4C242.19,46.72,243.13,48.39,245.16,48.39Zm15.49-11.15c4.2,0,6.81,2.53,6.59,8.32h-9.41c0,2,1,3.33,3,3.33a2.5,2.5,0,0,0,2.46-1.44h3.91c-.21,2.38-2.46,4.48-6.37,4.48-3.26,0-6.8-1.88-6.8-7.31,0-4.56,2.75-7.38,6.58-7.38Zm2.68,5.93c-.07-1.73-1-2.82-2.68-2.82s-2.53,1.09-2.75,2.82Zm10-5.5v2a4.74,4.74,0,0,1,4.12-2.39c3,0,4.93,1.52,4.93,4.85v9.41h-3.84V43.1c0-2-.8-2.68-2.32-2.68s-2.75.58-2.75,3.62V51.5h-3.76V37.67Z" transform="translate(-6.88 -9.72)"/></svg>
